dist/img/bell_icon.svg

<svg width="26" height="34" viewBox="0 0 26 34" fill="none" xmlns="http://www.w3.org/2000/svg">
<path d="M9.30038 3.59997C6.50038 6.69997 5.60038 7.19997 3.00038 6.69997C-0.399623 5.99997 -0.499623 6.19997 1.20038 9.09997C2.20038 10.8 2.30038 11.4 1.30038 11.7C-0.299623 12.3 -0.399623 15 1.10038 15C1.90038 15 2.10038 17.8 1.80038 24.6L1.30038 34.1L3.90038 33.8C6.90038 33.4 7.80038 29.4 4.80038 29.6C3.20038 29.8 3.00038 28.8 3.00038 22.6V15.5L6.90038 15.2C11.2004 14.9 13.0004 16.3 10.4004 17.8C9.40038 18.3 8.40038 20.7 8.00038 23.4C7.40038 27.3 7.60038 28 9.00038 28C9.90038 28 11.1004 28.5 11.8004 29.2C12.7004 30.1 13.3004 30.1 14.2004 29.2C14.9004 28.5 16.2004 28 17.1004 28C18.2004 28 18.7004 27.4 18.4004 26.2C18.0004 24.8 17.0004 24.6 13.4004 24.9C8.90038 25.2 8.90038 25.2 9.20038 22.4C9.50038 20 10.0004 19.5 12.8004 19.4C14.9004 19.3 16.4004 19.8 17.0004 20.9C17.6004 21.9 18.0004 22 18.0004 21.2C18.0004 20.5 17.1004 19.2 16.1004 18.3C13.7004 16.3 14.3004 15 17.7004 15H20.2004L19.9004 24.2L19.5004 33.5L22.1004 33.8L24.7004 34.1L24.2004 24.6C23.9004 17.8 24.1004 15 24.9004 15C26.4004 15 26.3004 12.3 24.8004 11.7C23.8004 11.4 23.8004 10.8 24.8004 9.09997C26.5004 6.19997 26.4004 5.99997 23.0004 6.69997C20.4004 7.19997 19.5004 6.69997 16.6004 3.59997C14.7004 1.59997 13.0004 -2.67029e-05 12.8004 -2.67029e-05C12.6004 -2.67029e-05 11.0004 1.59997 9.30038 3.59997ZM16.0004 4.49997C18.6004 7.29997 17.7004 7.89997 14.8004 5.29997C13.1004 3.79997 12.9004 3.79997 11.2004 5.29997C8.30038 7.89997 7.40038 7.29997 10.0004 4.49997C11.3004 3.09997 12.6004 1.99997 13.0004 1.99997C13.4004 1.99997 14.7004 3.09997 16.0004 4.49997ZM14.0004 5.99997C14.0004 6.49997 13.6004 6.99997 13.0004 6.99997C12.5004 6.99997 12.0004 6.49997 12.0004 5.99997C12.0004 5.39997 12.5004 4.99997 13.0004 4.99997C13.6004 4.99997 14.0004 5.39997 14.0004 5.99997ZM21.5004 8.99997C20.4004 9.49997 16.6004 9.89997 13.0004 9.89997C9.40038 9.89997 5.60038 9.49997 4.50038 8.99997C3.20038 8.39997 6.30038 8.09997 13.0004 8.09997C19.7004 8.09997 22.8004 8.39997 21.5004 8.99997ZM13.3004 11.2L20.5004 11.4L15.0004 11.9L9.50038 12.4L17.5004 13C24.7004 13.6 24.2004 13.6 13.0004 13.7C5.00038 13.7 2.00038 13.5 4.50038 13C7.60038 12.4 7.90038 12.3 5.80038 12.1C4.20038 12.1 3.00038 11.5 3.00038 10.9C3.00038 10.3 3.70038 10.1 4.60038 10.4C5.50038 10.7 9.40038 11.1 13.3004 11.2ZM23.0004 11C23.0004 11.5 22.6004 12 22.0004 12C21.5004 12 21.0004 11.5 21.0004 11C21.0004 10.4 21.5004 9.99997 22.0004 9.99997C22.6004 9.99997 23.0004 10.4 23.0004 11ZM23.0004 22.6C23.0004 27.3 22.6004 29.9 22.0004 29.5C20.2004 28.4 20.8004 15 22.7004 15C22.9004 15 23.0004 18.4 23.0004 22.6ZM15.3004 26.7C14.0004 26.9 12.0004 26.9 10.8004 26.7C9.50038 26.5 10.5004 26.3 13.0004 26.3C15.5004 26.3 16.5004 26.5 15.3004 26.7ZM6.00038 32C6.00038 32.5 5.10038 33 4.00038 33C2.90038 33 2.00038 32.5 2.00038 32C2.00038 31.4 2.90038 31 4.00038 31C5.10038 31 6.00038 31.4 6.00038 32ZM24.0004 32C24.0004 32.5 23.1004 33 22.0004 33C20.9004 33 20.0004 32.5 20.0004 32C20.0004 31.4 20.9004 31 22.0004 31C23.1004 31 24.0004 31.4 24.0004 32Z" fill="url(#paint0_linear_211_4396)"/>
<defs>
<linearGradient id="paint0_linear_211_4396" x1="1.5" y1="-6" x2="20" y2="25" gradientUnits="userSpaceOnUse">
<stop stop-color="#F6D4BA"/>
<stop offset="1" stop-color="#F6D4BA" stop-opacity="0.45"/>
</linearGradient>
</defs>
</svg>

<svg width="26" height="34" fill="none" xmlns="http://www.w3.org/2000/svg"><path d="M9.3 3.6C6.5 6.7 5.6 7.2 3 6.7-.4 6-.5 6.2 1.2 9.1c1 1.7 1.1 2.3.1 2.6-1.6.6-1.7 3.3-.2 3.3.8 0 1 2.8.7 9.6l-.5 9.5 2.6-.3c3-.4 3.9-4.4.9-4.2-1.6.2-1.8-.8-1.8-7v-7.1l3.9-.3c4.3-.3 6.1 1.1 3.5 2.6-1 .5-2 2.9-2.4 5.6-.6 3.9-.4 4.6 1 4.6.9 0 2.1.5 2.8 1.2.9.9 1.5.9 2.4 0 .7-.7 2-1.2 2.9-1.2 1.1 0 1.6-.6 1.3-1.8-.4-1.4-1.4-1.6-5-1.3-4.5.3-4.5.3-4.2-2.5.3-2.4.8-2.9 3.6-3 2.1-.1 3.6.4 4.2 1.5.6 1 1 1.1 1 .3 0-.7-.9-2-1.9-2.9-2.4-2-1.8-3.3 1.6-3.3h2.5l-.3 9.2-.4 9.3 2.6.3 2.6.3-.5-9.5c-.3-6.8-.1-9.6.7-9.6 1.5 0 1.4-2.7-.1-3.3-1-.3-1-.9 0-2.6C26.5 6.2 26.4 6 23 6.7c-2.6.5-3.5 0-6.4-3.1C14.7 1.6 13 0 12.8 0c-.2 0-1.8 1.6-3.5 3.6zm6.7.9c2.6 2.8 1.7 3.4-1.2.8-1.7-1.5-1.9-1.5-3.6 0-2.9 2.6-3.8 2-1.2-.8C11.3 3.1 12.6 2 13 2c.4 0 1.7 1.1 3 2.5zM14 6c0 .5-.4 1-1 1-.5 0-1-.5-1-1 0-.6.5-1 1-1 .6 0 1 .4 1 1zm7.5 3c-1.1.5-4.9.9-8.5.9-3.6 0-7.4-.4-8.5-.9-1.3-.6 1.8-.9 8.5-.9s9.8.3 8.5.9zm-8.2 2.2l7.2.2-5.5.5-5.5.5 8 .6c7.2.6 6.7.6-4.5.7-8 0-11-.2-8.5-.7 3.1-.6 3.4-.7 1.3-.9-1.6 0-2.8-.6-2.8-1.2s.7-.8 1.6-.5c.9.3 4.8.7 8.7.8zM23 11c0 .5-.4 1-1 1-.5 0-1-.5-1-1 0-.6.5-1 1-1 .6 0 1 .4 1 1zm0 11.6c0 4.7-.4 7.3-1 6.9-1.8-1.1-1.2-14.5.7-14.5.2 0 .3 3.4.3 7.6zm-7.7 4.1c-1.3.2-3.3.2-4.5 0-1.3-.2-.3-.4 2.2-.4s3.5.2 2.3.4zM6 32c0 .5-.9 1-2 1s-2-.5-2-1c0-.6.9-1 2-1s2 .4 2 1zm18 0c0 .5-.9 1-2 1s-2-.5-2-1c0-.6.9-1 2-1s2 .4 2 1z" fill="url(#paint0_linear_211_4396)"/><defs><linearGradient id="paint0_linear_211_4396" x1="1.5" y1="-6" x2="20" y2="25" gradientUnits="userSpaceOnUse"><stop stop-color="#F6D4BA"/><stop offset="1" stop-color="#F6D4BA" stop-opacity=".45"/></linearGradient></defs></svg>
